icons/cloud-arrow-left-outline.svg

<svg xmlns="http://www.w3.org/2000/svg" width="24" height="24" viewBox="0 0 24 24">
  <path d="M12.5,3 C16.918278,3 20.5,6.581722 20.5,11 C20.5,11.1204206 20.4973322,11.2405319 20.4920144,11.3602705 L20.4920144,11.3602705 L20.472,11.654 L20.5287365,11.6859719 C21.9683651,12.5292172 22.9183208,14.0574067 22.9949844,15.7749408 L22.9949844,15.7749408 L23,16 C23,18.6686219 20.9044736,20.8633628 18.2241536,20.9948042 L18.2241536,20.9948042 L18,21 L6.5,21 C6.38859112,21 6.28147754,20.9817932 6.18145173,20.9482064 L6.18145173,20.9482064 L6.166,20.942 L5.94889404,20.9081606 C3.19270368,20.4215684 1.11197825,18.064907 1.0043751,15.2308104 L1.0043751,15.2308104 L1,15 C1,12.5890868 2.43448394,10.4577805 4.56984355,9.51249345 L4.56984355,9.51249345 L4.646,9.48 L4.66919046,9.36089212 C5.4117318,5.78500472 8.52762508,3.12063681 12.2455902,3.00398632 L12.2455902,3.00398632 Z M12.5,5 C9.43685135,5 6.87436978,7.30747742 6.53871277,10.3255833 C6.49452585,10.7228961 6.21795931,11.0557172 5.83545006,11.171892 C4.16485155,11.6792823 3,13.2264394 3,15 C3,17.0601278 4.56515494,18.7784159 6.59904064,18.980229 L6.59904064,18.980229 L6.65802984,18.9878352 L6.722,19 L17.9754867,19.0003005 L18.1505472,18.9963105 C19.7424301,18.9180655 21,17.600955 21,16 C21,14.7340634 20.2086704,13.6174613 19.0426136,13.1870228 C18.5876682,13.0190841 18.3187909,12.5489278 18.4047462,12.0716539 C18.4679372,11.7207805 18.5,11.3626762 18.5,11 C18.5,7.6862915 15.8137085,5 12.5,5 Z M8.001,13.059 L8.002,13.059 L8,13.018 L8,13 L8.00004511,12.9904013 L8.00018018,12.980824 L8.0017331,12.9409686 C8.00232561,12.9308872 8.00307004,12.9208131 8.00399798,12.909968 L8.00399798,12.909968 L8.0110178,12.8515331 C8.01362808,12.834051 8.01670217,12.8166247 8.02016515,12.7992059 C8.0246398,12.7772539 8.02983363,12.7555635 8.03584514,12.734007 C8.04009773,12.7185367 8.04472872,12.7031487 8.04954668,12.6882636 C8.05612249,12.6682023 8.06331574,12.6484208 8.07122549,12.628664 L8.07122549,12.628664 L8.09365378,12.5769009 C8.10337664,12.5561086 8.11379392,12.5357061 8.12467117,12.5159379 L8.12467117,12.5159379 L8.14606743,12.4793398 C8.1617187,12.453725 8.17849009,12.4288693 8.19633458,12.4046934 L8.19633458,12.4046934 L8.22,12.374 L8.216,12.378 L8.21968877,12.374551 L8.232,12.359 L8.24220802,12.347434 L8.24220802,12.347434 L8.29289322,12.2928932 L11.2928932,9.29289322 L11.3871006,9.20970461 C11.7793918,8.90467972 12.3466228,8.93240926 12.7071068,9.29289322 C13.0976311,9.68341751 13.0976311,10.3165825 12.7071068,10.7071068 L12.7071068,10.7071068 L11.415,12 L15,12 L15.1166211,12.0067277 C15.6139598,12.0644928 16,12.4871642 16,13 C16,13.5522847 15.5522847,14 15,14 L15,14 L11.415,14 L12.7071068,15.2928932 L12.7902954,15.3871006 C13.0953203,15.7793918 13.0675907,16.3466228 12.7071068,16.7071068 C12.3165825,17.0976311 11.6834175,17.0976311 11.2928932,16.7071068 L11.2928932,16.7071068 L8.29289322,13.7071068 L8.21968877,13.625449 C8.2173721,13.6225624 8.21507113,13.6196628 8.20970461,13.6128994 C8.20517454,13.6070733 8.20071786,13.6012086 8.19631351,13.5951593 C8.17849009,13.5711307 8.1617187,13.546275 8.14599545,13.5207088 C8.13860692,13.5086131 8.13149883,13.4963944 8.12487577,13.484277 C8.11379392,13.4642939 8.10337664,13.4438914 8.09367336,13.4232215 L8.09367336,13.4232215 L8.07110396,13.3710585 C8.06331574,13.3515792 8.05612249,13.3317977 8.04973809,13.3121425 C8.04472872,13.2968513 8.04009773,13.2814633 8.03572097,13.2658396 C8.02983363,13.2444365 8.0246398,13.2227461 8.02024007,13.2007258 C8.01670217,13.1833753 8.01362808,13.165949 8.01101934,13.1489612 C8.00376119,13.1003621 8,13.0506203 8,13 L8.001,13.059 Z"/>
</svg>

<svg xmlns="http://www.w3.org/2000/svg" viewBox="0 0 24 24">
  <path d="M12.5 3a8 8 0 0 1 8 8.36l-.03.3.06.03a5 5 0 0 1 2.46 4.08L23 16a5 5 0 0 1-4.78 5H6.5a1 1 0 0 1-.32-.05h-.01l-.22-.04A6 6 0 0 1 1 15.23V15a6 6 0 0 1 3.57-5.49l.08-.03.02-.12A8 8 0 0 1 12.25 3zm0 2a6 6 0 0 0-5.96 5.33 1 1 0 0 1-.7.84 4 4 0 0 0 .76 7.81h.06l.06.02h11.43a3 3 0 0 0 .9-5.81 1 1 0 0 1-.65-1.12A6 6 0 0 0 12.5 5zM8 13.06v-.15l.01-.06a1.1 1.1 0 0 1 .06-.22l.02-.05.03-.06.03-.04.05-.08.02-.03.01-.01.01-.01.05-.06 3-3 .1-.08a1 1 0 0 1 1.32 1.5L11.4 12h3.71a1 1 0 0 1-.12 2H11.4l1.3 1.3.08.09a1 1 0 0 1-1.5 1.32l-3-3-.07-.08a3.01 3.01 0 0 1-.1-.15 1.02 1.02 0 0 1-.03-.06l-.02-.05A.95.95 0 0 1 8 13v.06z"/>
</svg>
